src/asset/24px/download.svg

<svg width="24" height="24" viewBox="0 0 24 24" fill="none" xmlns="http://www.w3.org/2000/svg">
<path fill-rule="evenodd" clip-rule="evenodd" d="M21 12.9997C21.5523 12.9997 22 13.4474 22 13.9997V17.9997C22 19.6566 20.6569 20.9997 19 20.9997H5C3.34315 20.9997 2 19.6566 2 17.9997V13.9997C2 13.4474 2.44772 12.9997 3 12.9997C3.55228 12.9997 4 13.4474 4 13.9997V17.9997C4 18.552 4.44772 18.9997 5 18.9997H19C19.5523 18.9997 20 18.552 20 17.9997V13.9997C20 13.4474 20.4477 12.9997 21 12.9997ZM17.7071 8.29262C18.0976 8.68314 18.0976 9.31631 17.7071 9.70683L12.7071 14.7068C12.3166 15.0974 11.6834 15.0974 11.2929 14.7068L6.29289 9.70683C5.90237 9.31631 5.90237 8.68314 6.29289 8.29262C6.68342 7.90209 7.31658 7.90209 7.70711 8.29262L11 11.5855V2.99973C11 2.44744 11.4477 1.99973 12 1.99973C12.5523 1.99973 13 2.44744 13 2.99973V11.5855L16.2929 8.29262C16.6834 7.90209 17.3166 7.90209 17.7071 8.29262Z" fill="#808080"/>
</svg>

<svg width="24" height="24" fill="none" xmlns="http://www.w3.org/2000/svg"><path fill-rule="evenodd" clip-rule="evenodd" d="M21 13a1 1 0 011 1v4a3 3 0 01-3 3H5a3 3 0 01-3-3v-4a1 1 0 112 0v4a1 1 0 001 1h14a1 1 0 001-1v-4a1 1 0 011-1zm-3.293-4.707a1 1 0 010 1.414l-5 5a1 1 0 01-1.414 0l-5-5a1 1 0 011.414-1.414L11 11.586V3a1 1 0 112 0v8.585l3.293-3.292a1 1 0 011.414 0z" fill="gray"/></svg>
